X:278
T:General MacDonald
R:Strathspey
C:Neil Gow
B:The Athole Collection
M:C
L:1/8
K:C Minor
E/D/|C>GE>c G>CE>c|B<dFB, D/E/F/D/|C>GE>c G>CD>g|
e>c e/d/c/=B/ ~c2c:|
e/f/|g<c e>c g>ce>g|f>B e/d/c/B/ f>Bd>f|g<c e>c g<c f>a|g>ef>d ~c2 c/d/e/f/|
g>ce>c g>ce>g|fBd>f|g>ef>d e>cd>=B|G>c B/c/d/B/ C2c||
